X:1
T: Miss Stewart Robertson
C:
R:Reel
Q: 232
K:F
M:4/4
L:1/8
|:B|AF Ac f2 cf|df cA BG GB|AF Ac f2 cf|df cf AF FB|
AF Ac f2 cf|df cA BG GB|AF cA Bc de|fc dB AF Ff|
af ge f2 cB|Ac fA BG Gf|af ge f2 cB|Ac fc AF Ff|
af ge f2 cB|Ac fA BG Gf|AF cA Bc de|fc dB AF F:|
